resources/svg/regular/candles.svg

<svg xmlns="http://www.w3.org/2000/svg" fill="currentColor" stroke="none" viewBox="0 0 24 24"><path d="M6 19h1v3h2v-3h1a1 1 0 0 0 1-1V6a1 1 0 0 0-1-1H9V2H7v3H6a1 1 0 0 0-1 1v12a1 1 0 0 0 1 1zM7 7h2v10H7zm7 10h1v3h2v-3h1a1 1 0 0 0 1-1V8a1 1 0 0 0-1-1h-1V4h-2v3h-1a1 1 0 0 0-1 1v8a1 1 0 0 0 1 1zm1-8h2v6h-2z"/></svg>

<svg xmlns="http://www.w3.org/2000/svg" fill="currentColor" stroke="none" viewBox="0 0 24 24"><path d="M6,19H7v3H9V19h1a1,1,0,0,0,1-1V6a1,1,0,0,0-1-1H9V2H7V5H6A1,1,0,0,0,5,6V18A1,1,0,0,0,6,19ZM7,7H9V17H7Z"/><path d="M14,17h1v3h2V17h1a1,1,0,0,0,1-1V8a1,1,0,0,0-1-1H17V4H15V7H14a1,1,0,0,0-1,1v8A1,1,0,0,0,14,17Zm1-8h2v6H15Z"/></svg>
